resources/user-trash.svg

<svg height="48" width="48" xmlns="http://www.w3.org/2000/svg" xmlns:xlink="http://www.w3.org/1999/xlink">
  <linearGradient id="a">
    <stop offset="0" stop-color="#999" />
    <stop offset="1" stop-color="#1a1a1a" />
  </linearGradient>
  <linearGradient id="b" gradientUnits="userSpaceOnUse" x1="7.622372" x2="40.394974" y1="22.328428" y2="21.986858">
    <stop offset="0" stop-color="#b3b3b3" />
    <stop offset=".18864594" stop-color="#ccc" />
    <stop offset=".53542525" stop-color="#ccc" />
    <stop offset="1" stop-color="#ccc" />
  </linearGradient>
  <linearGradient id="c" gradientTransform="matrix(1 0 0 1.033115 .077296 -.469662)" gradientUnits="userSpaceOnUse" x1="13.677746" x2="34.828678" xlink:href="#a" y1="4.542438" y2="42.423794" />
  <linearGradient id="d" gradientTransform="matrix(1 0 0 1.033115 .077296 -.469662)" gradientUnits="userSpaceOnUse" x1="10.298015" x2="28.069216" xlink:href="#a" y1="6.143335" y2="37.690704" />
  <path d="m22.19695 47.053704c-4.696816-.330753-8.520655-1.648349-10.172837-3.505309-.588277-.661189-.747498-1.015288-.921832-2.050096-.481123-2.855833-5.2084729-28.982514-5.33209-29.468917-.8463992-3.330292 2.6071721-6.3466277 9.15861-7.9990799 1.500367-.3784406 3.780146-.7531995 5.589238-.9187918 1.624287-.1486802 5.394273-.1486802 7.018558 0 7.925551.7254538 13.858447 3.5317503 14.752444 6.9779817.172624.665456.157911 1.174092-.06059 2.094274-.236343.995366-5.333788 29.37663-5.333788 29.697163 0 .1301-.12911.501964-.28691.826352-.800803 1.646172-3.485897 3.104999-7.112221 3.864113-2.01838.422514-5.180441.631469-7.29862.48231z" fill-opacity=".313726" stroke-width=".988942" />
  <path d="m22.126086 45.95212c-4.813536-.329991-8.732402-1.644548-10.425642-3.497226-.602898-.659665-.766076-1.012947-.944741-2.045369-.493081-2.849248-5.3379105-28.915683-5.4645996-29.400964-.8674331-3.3226127 2.6719635-6.331993 9.3862116-7.9806348 1.537654-.3775679 3.874088-.7514627 5.728138-.9166731 1.664652-.1483374 5.528327-.1483374 7.192977 0 8.122512.7237809 14.202845 3.5236063 15.119059 6.9618909.176915.6639218.161836 1.171385-.06209 2.089445-.242218.993071-5.466341 29.30889-5.466341 29.628684 0 .1298-.132318.500806-.294039.824446-.820704 1.642376-3.572525 3.097839-7.288967 3.855203-2.06854.42154-5.309181.630013-7.48.481198z" fill="url(#b)" />
  <g stroke-width="1.10883">
    <path d="m23.989441 3.0784752c3.475443-.00186 6.99436.4414194 10.089767 1.3740443 2.851257.859068 5.005939 2.0304604 6.196026 3.3671404.804629.9037349.955951 1.4763611.606176 2.2921641-.821612 1.91682-4.481321 3.868694-9.084739 4.845755-1.852934.393287-3.615579.616178-5.801123.73408-1.913034.103198-2.155427.104764-4.219537-.0042h.100701c-6.023493-.312675-11.495991-2.050205-13.8591147-4.36681-.5997013-.588816-1.0777761-1.429344-1.0761101-1.890618.0028308-.7806621.9103889-1.9471387 2.181838-2.8066466 3.4008728-2.2990142 9.0737138-3.5418114 14.8661158-3.5449092z" fill="url(#c)" />
    <path d="m23.989441 3.0784752c3.475443-.00186 6.99436.4414194 10.089767 1.3740443 2.851257.859068 5.005939 2.0304604 6.196026 3.3671404.804629.9037349.955951 1.4763611.606176 2.2921641-.821612 1.91682-4.481321 3.868694-9.084739 4.845755-1.852934.393287-3.615579.616178-5.801123.73408-1.913034.103198-2.155427.104764-4.219537-.0042h.100701c-6.023493-.312675-11.495991-2.050205-13.8591147-4.36681-.5997013-.588816-1.0777761-1.429344-1.0761101-1.890618.0028308-.7806621.9103889-1.9471387 2.181838-2.8066466 3.4008728-2.2990142 9.0737138-3.5418114 14.8661158-3.5449092z" fill="url(#d)" />
  </g>
</svg>

<?xml version="1.0" encoding="UTF-8" standalone="no"?>
<svg
   xmlns:dc="http://purl.org/dc/elements/1.1/"
   xmlns:cc="http://creativecommons.org/ns#"
   xmlns:rdf="http://www.w3.org/1999/02/22-rdf-syntax-ns#"
   xmlns:svg="http://www.w3.org/2000/svg"
   xmlns="http://www.w3.org/2000/svg"
   xmlns:xlink="http://www.w3.org/1999/xlink"
   xmlns:sodipodi="http://sodipodi.sourceforge.net/DTD/sodipodi-0.dtd"
   xmlns:inkscape="http://www.inkscape.org/namespaces/inkscape"
   inkscape:version="1.0 (4035a4fb49, 2020-05-01)"
   sodipodi:docname="user-trash.svg"
   id="svg28"
   version="1.1"
   width="48"
   height="48">
  <metadata
     id="metadata34">
    <rdf:RDF>
      <cc:Work
         rdf:about="">
        <dc:format>image/svg+xml</dc:format>
        <dc:type
           rdf:resource="http://purl.org/dc/dcmitype/StillImage" />
      </cc:Work>
    </rdf:RDF>
  </metadata>
  <defs
     id="defs32" />
  <sodipodi:namedview
     inkscape:current-layer="svg28"
     inkscape:window-maximized="1"
     inkscape:window-y="32"
     inkscape:window-x="0"
     inkscape:cy="24"
     inkscape:cx="24"
     inkscape:zoom="14.895833"
     showgrid="false"
     id="namedview30"
     inkscape:window-height="941"
     inkscape:window-width="1920"
     inkscape:pageshadow="2"
     inkscape:pageopacity="0"
     guidetolerance="10"
     gridtolerance="10"
     objecttolerance="10"
     borderopacity="1"
     bordercolor="#666666"
     pagecolor="#ffffff" />
  <linearGradient
     id="a">
    <stop
       id="stop2"
       stop-color="#999"
       offset="0" />
    <stop
       id="stop4"
       stop-color="#1a1a1a"
       offset="1" />
  </linearGradient>
  <linearGradient
     y2="21.986858"
     y1="22.328428"
     x2="40.394974"
     x1="7.622372"
     gradientUnits="userSpaceOnUse"
     id="b">
    <stop
       id="stop7"
       stop-color="#b3b3b3"
       offset="0" />
    <stop
       id="stop9"
       stop-color="#ccc"
       offset=".18864594" />
    <stop
       id="stop11"
       stop-color="#ccc"
       offset=".53542525" />
    <stop
       id="stop13"
       stop-color="#ccc"
       offset="1" />
  </linearGradient>
  <linearGradient
     y2="42.423794"
     y1="4.542438"
     xlink:href="#a"
     x2="34.828678"
     x1="13.677746"
     gradientUnits="userSpaceOnUse"
     gradientTransform="matrix(1,0,0,1.033115,0.077296,-0.469662)"
     id="c" />
  <linearGradient
     y2="37.690704"
     y1="6.143335"
     xlink:href="#a"
     x2="28.069216"
     x1="10.298015"
     gradientUnits="userSpaceOnUse"
     gradientTransform="matrix(1,0,0,1.033115,0.077296,-0.469662)"
     id="d" />
  <g
     transform="matrix(0.99999182,0,0,0.94515296,1.9633276e-4,0.79569398)"
     id="g864">
    <path
       d="M 22.19695,47.053704 C 17.500134,46.722951 13.676295,45.405355 12.024113,43.548395 11.435836,42.887206 11.276615,42.533107 11.102281,41.498299 10.621158,38.642466 5.8938081,12.515785 5.770191,12.029382 4.9237918,8.69909 8.3773631,5.6827543 14.928801,4.0303021 c 1.500367,-0.3784406 3.780146,-0.7531995 5.589238,-0.9187918 1.624287,-0.1486802 5.394273,-0.1486802 7.018558,0 7.925551,0.7254538 13.858447,3.5317503 14.752444,6.9779817 0.172624,0.665456 0.157911,1.174092 -0.06059,2.094274 -0.236343,0.995366 -5.333788,29.37663 -5.333788,29.697163 0,0.1301 -0.12911,0.501964 -0.28691,0.826352 -0.800803,1.646172 -3.485897,3.104999 -7.112221,3.864113 -2.01838,0.422514 -5.180441,0.631469 -7.29862,0.48231 z"
       fill-opacity="0.313726"
       stroke-width="0.988942"
       id="path18" />
    <path
       style="fill:url(#b)"
       d="M 22.126086,45.95212 C 17.31255,45.622129 13.393684,44.307572 11.700444,42.454894 11.097546,41.795229 10.934368,41.441947 10.755703,40.409525 10.262622,37.560277 5.4177925,11.493842 5.2911034,11.008561 4.4236703,7.6859483 7.9630669,4.676568 14.677315,3.0279262 c 1.537654,-0.3775679 3.874088,-0.7514627 5.728138,-0.9166731 1.664652,-0.1483374 5.528327,-0.1483374 7.192977,0 8.122512,0.7237809 14.202845,3.5236063 15.119059,6.9618909 0.176915,0.6639218 0.161836,1.171385 -0.06209,2.089445 -0.242218,0.993071 -5.466341,29.30889 -5.466341,29.628684 0,0.1298 -0.132318,0.500806 -0.294039,0.824446 -0.820704,1.642376 -3.572525,3.097839 -7.288967,3.855203 -2.06854,0.42154 -5.309181,0.630013 -7.48,0.481198 z"
       fill="url(#b)"
       id="path20" />
    <g
       stroke-width="1.10883"
       id="g26">
      <path
         style="fill:url(#c)"
         d="m 23.989441,3.0784752 c 3.475443,-0.00186 6.99436,0.4414194 10.089767,1.3740443 2.851257,0.859068 5.005939,2.0304604 6.196026,3.3671404 0.804629,0.9037349 0.955951,1.4763611 0.606176,2.2921641 -0.821612,1.91682 -4.481321,3.868694 -9.084739,4.845755 -1.852934,0.393287 -3.615579,0.616178 -5.801123,0.73408 -1.913034,0.103198 -2.155427,0.104764 -4.219537,-0.0042 h 0.100701 C 15.853219,15.374784 10.380721,13.637254 8.0175973,11.320649 7.417896,10.731833 6.9398212,9.891305 6.9414872,9.430031 6.944318,8.6493689 7.8518761,7.4828923 9.1233252,6.6233844 12.524198,4.3243702 18.197039,3.081573 23.989441,3.0784752 Z"
         fill="url(#c)"
         id="path22" />
      <path
         style="fill:url(#d)"
         d="m 23.989441,3.0784752 c 3.475443,-0.00186 6.99436,0.4414194 10.089767,1.3740443 2.851257,0.859068 5.005939,2.0304604 6.196026,3.3671404 0.804629,0.9037349 0.955951,1.4763611 0.606176,2.2921641 -0.821612,1.91682 -4.481321,3.868694 -9.084739,4.845755 -1.852934,0.393287 -3.615579,0.616178 -5.801123,0.73408 -1.913034,0.103198 -2.155427,0.104764 -4.219537,-0.0042 h 0.100701 C 15.853219,15.374784 10.380721,13.637254 8.0175973,11.320649 7.417896,10.731833 6.9398212,9.891305 6.9414872,9.430031 6.944318,8.6493689 7.8518761,7.4828923 9.1233252,6.6233844 12.524198,4.3243702 18.197039,3.081573 23.989441,3.0784752 Z"
         fill="url(#d)"
         id="path24" />
    </g>
  </g>
</svg>
